public/formular-icons/english/lower-p.svg

<svg style="vertical-align:-.439ex" xmlns="http://www.w3.org/2000/svg" width="1.138ex" height="1.439ex" viewBox="0 -442 503 636" xmlns:xlink="http://www.w3.org/1999/xlink"><defs><path id="a" d="M23 287q1 3 2 8t5 22 10 31 15 33 20 30 26 22 33 9q75 0 96-64l10 9q62 55 118 55 65 0 102-47t37-114q0-108-76-199T249-10q-22 0-39 6-11 5-23 15t-19 17l-7 8q-1-1-22-87t-21-87q0-6 8-7t37-3h25q6-7 6-9t-3-18q-3-12-6-15t-13-4h-11q-9 0-34 1t-62 1q-70 0-89-2h-8q-7 7-7 11 2 27 13 35h20q34 1 39 12 3 6 61 239t61 247q1 5 1 14 0 41-25 41-22 0-37-28t-23-61-12-36q-2-2-16-2H29q-6 6-6 9Zm155-185q22-76 74-76 30 0 58 23t46 58q18 34 36 108t19 110v6q0 74-61 74-11 0-22-3t-22-9-20-13-17-15-15-15-11-14-8-10l-3-4q0-1-3-14t-11-44-14-52q-26-106-26-110Z"/></defs><g stroke="currentColor" fill="currentColor" stroke-width="0"><use data-c="1D45D" xlink:href="#a" transform="scale(1 -1)"/></g></svg>

<svg style="vertical-align: -0.439ex" xmlns="http://www.w3.org/2000/svg" width="1.138ex" height="1.439ex" role="img" focusable="false" viewBox="0 -442 503 636" xmlns:xlink="http://www.w3.org/1999/xlink"><defs><path id="MJX-63-TEX-I-1D45D" d="M23 287Q24 290 25 295T30 317T40 348T55 381T75 411T101 433T134 442Q209 442 230 378L240 387Q302 442 358 442Q423 442 460 395T497 281Q497 173 421 82T249 -10Q227 -10 210 -4Q199 1 187 11T168 28L161 36Q160 35 139 -51T118 -138Q118 -144 126 -145T163 -148H188Q194 -155 194 -157T191 -175Q188 -187 185 -190T172 -194Q170 -194 161 -194T127 -193T65 -192Q-5 -192 -24 -194H-32Q-39 -187 -39 -183Q-37 -156 -26 -148H-6Q28 -147 33 -136Q36 -130 94 103T155 350Q156 355 156 364Q156 405 131 405Q109 405 94 377T71 316T59 280Q57 278 43 278H29Q23 284 23 287ZM178 102Q200 26 252 26Q282 26 310 49T356 107Q374 141 392 215T411 325V331Q411 405 350 405Q339 405 328 402T306 393T286 380T269 365T254 350T243 336T235 326L232 322Q232 321 229 308T218 264T204 212Q178 106 178 102Z"></path></defs><g stroke="currentColor" fill="currentColor" stroke-width="0" transform="scale(1,-1)"><g data-mml-node="math"><g data-mml-node="mi"><use data-c="1D45D" xlink:href="#MJX-63-TEX-I-1D45D"></use></g></g></g></svg>
